X:8
T:Dingle Regatta, The
S:P.V. O'Donnel
L:1/8
R:Slide
M:6/8
K:D
dcd e2d | BAB d2B | A3 AGA | B2A GAB |
dcd e2d | BAB d2B | A3 B2A | G3 G3 :|
|: d3 def | g3 gfg | a3 aga | b2a gfe |
d3 def | g3 g2b | a2g f2e | def g3 :|
|: g3 d3 | BdB G3 | ABA DEF | G2A Bde |
g3 d3 | BdB G3 | ABA DEF | G3 G3 :|


